src/actions/symbolic/tool-freeshape-symbolic.svg

<svg xmlns="http://www.w3.org/2000/svg" width="16" height="16" version="1.1">
 <path style="fill:#363636;opacity:0.3" d="M 1.5,2.5 H 14.5 L 11,9 13.5,14.5 3.5,12.5 Z"/>
 <path style="fill:#363636" d="M 1.5,2 A 0.50005,0.50005 0 0 0 1.0098,2.5977 L 3.0098,12.598 A 0.50005,0.50005 0 0 0 3.4023,12.99 L 13.402,14.99 A 0.50005,0.50005 0 0 0 13.955,14.293 L 11.559,9.0195 14.939,2.7363 A 0.50005,0.50005 0 0 0 14.5,2 Z M 2.1094,3 H 13.664 L 10.561,8.7637 A 0.50005,0.50005 0 0 0 10.545,9.207 L 12.641,13.818 3.9258,12.074 Z"/>
</svg>

<svg xmlns="http://www.w3.org/2000/svg" width="16" height="16">
    <path d="M1.5 2.5h13L11 9l2.5 5.5-10-2Z" style="fill:#050505;opacity:.3"/>
    <path d="M1.5 2a.5.5 0 0 0-.49.598l2 10a.5.5 0 0 0 .392.392l10 2a.5.5 0 0 0 .553-.697L11.559 9.02l3.38-6.284A.5.5 0 0 0 14.5 2Zm.61 1h11.554l-3.103 5.764a.5.5 0 0 0-.016.443l2.096 4.611-8.715-1.744Z" style="fill:#050505;opacity:.7"/>
</svg>
